local/share/icons/dracula-icons-main/22/devices/drive-removable-media-usb-pendrive.svg

<?xml version="1.0" encoding="UTF-8"?>
<svg xmlns="http://www.w3.org/2000/svg" xmlns:xlink="http://www.w3.org/1999/xlink" width="22" height="22" viewBox="0 0 22 22">
<path fill-rule="nonzero" fill="rgb(44.705882%, 44.705882%, 44.705882%)" fill-opacity="1" d="M 7.84375 4.003906 C 7.5625 4.050781 7 4.253906 7 5.003906 L 7 14.003906 C 7 14.003906 7 15.003906 8 15.003906 L 14 15.003906 C 15 15.003906 15 14.003906 15 14.003906 L 15 5.003906 C 15 4.003906 14 4.003906 14 4.003906 L 8 4.003906 C 8 4.003906 7.9375 3.988281 7.84375 4.003906 Z M 8 16.003906 L 8 18.003906 L 14 18.003906 L 14 16.003906 Z M 8 16.003906 "/>
</svg>

<svg width="22" height="22" version="1.1" viewBox="0 0 22 22" xmlns="http://www.w3.org/2000/svg">
 <defs>
  <style id="current-color-scheme" type="text/css">.ColorScheme-Text { color:#727272; } .ColorScheme-Highlight { color:#5294e2; }</style>
 </defs>
 <path class="ColorScheme-Text" d="m7.8437 4.0035c-0.28125 0.0469-0.84375 0.25-0.84375 1v9s0 1 1 1h6c1 0 1-1 1-1v-9c0-1-1-1-1-1h-6s-0.0625-0.0156-0.15625 0zm0.15625 12v2h6v-2z" fill="currentColor"/>
</svg>
